X:1
T:Title
%%score { 1 | 2 }
L:1/8
M:3/4
K:A
V:1 treble nm="Grand Piano"
V:2 bass 
V:1
 z2 z2[Q:1/4=100] [Ec]2 | [Ec][Ec] [CA]2 [Ec]2 | BB F2 F2 | [CE][CE] [CA]2 [Ec]2 |[M:2/4] [EB]4 | %5
[M:1/4] [Ed]2 |[M:3/4] [Ec][Ec] [CA]2 [Ec]2 | BB F2 [Fd]2 | cc c2 B2 |[M:2/4] [CA]4 | %10
[M:1/4] [Ae]2 |[M:3/4] [Ge][GB] [GB]2 [Gd]2 | dc c2 e2 | [Ge][GB] [GB]2 [Gd]2 | [Ac]4 [EA]2 | %15
 [Ec][Ec] [CA]2 [Ec]2 | BB F2 [Fd]2 | cc c2 B2 |[M:6/4] .[CA]6 z6 |] %19
V:2
 z2 z2 [A,,A,]2 | [A,,A,][A,,A,] [A,,A,]2 [A,,A,]2 | [D,F,D][D,F,D] [D,A,D]2 [D,A,D]2 | %3
 [A,,A,][A,,A,] [A,,A,]2 [A,,A,]2 |[M:2/4] [E,G,]4 |[M:1/4] [E,G,]2 | %6
[M:3/4] [A,,A,][A,,A,] [A,,A,]2 [A,,A,]2 | [D,F,D][D,F,D] [D,A,D]2 [B,,B,]2 | %8
 [E,A,E][E,A,E] [E,G,E]2 [E,G,D]2 |[M:2/4] [A,,A,]4 |[M:1/4] [A,C]2 | %11
[M:3/4] [E,B,][E,E] [E,E]2 [E,E]2 | [A,EA][A,EA] [A,EA]2 [A,CA]2 | [E,B,][E,E] [E,E]2 [E,E]2 | %14
 [A,E]4 [A,C]2 | [A,,A,][A,,A,] [A,,A,]2 [A,,A,]2 | [D,F,D][D,F,D] [D,A,D]2 [B,,B,]2 | %17
 [E,A,E][E,A,E] [E,G,E]2 [E,G,D]2 |[M:6/4] .[A,,A,]6 z6 |] %19

